X: 29
T: Kesh, The
Z: Sean Perry
S: https://thesession.org/tunes/55#setting52368
R: jig
M: 6/8
L: 1/8
K: Gmaj
|:G3 GAB|A3 ABd|edd gdd|edB dBA|
G3 GAB|A3 ABd|edd gdB|AGF G3:|
|:B3 dBd|ege dBA|B3 dBG|ABA AGA|
B3 dBd|ege dBd|gfg aga|bgf g3:|

